Newaita-dark/apps/22/com.github.jeremyvaartjes.comgen.svg

<svg height="22" viewBox="0 0 22 22" width="22" xmlns="http://www.w3.org/2000/svg" xmlns:xlink="http://www.w3.org/1999/xlink"><linearGradient id="a" gradientUnits="userSpaceOnUse" x1="10.9151136" x2="10.9151136" y1="19.27333715" y2="20.18293042919"><stop offset="0" stop-opacity=".27451"/><stop offset="1" stop-opacity="0"/></linearGradient><linearGradient id="b"><stop offset="0" stop-opacity=".313726"/><stop offset=".222222" stop-opacity=".27451"/><stop offset="1" stop-opacity="0"/></linearGradient><radialGradient id="c" cx="450.908936" cy="189.579361" gradientTransform="matrix(.00000012 -.0537161 -.0966889 -.00000007 35.839821 43.721791)" gradientUnits="userSpaceOnUse" r="21.166656" xlink:href="#b"/><radialGradient id="d" cx="450.908936" cy="189.579361" gradientTransform="matrix(-.00000012 .0537161 .0966889 .00000007 -14.009609 -5.175142)" gradientUnits="userSpaceOnUse" r="21.166656" xlink:href="#b"/><radialGradient id="e" cx="450.908936" cy="189.579361" gradientTransform="matrix(-.00000012 -.0537161 .0966889 -.00000007 -14.009609 43.721791)" gradientUnits="userSpaceOnUse" r="21.166656" xlink:href="#b"/><radialGradient id="f" cx="450.908936" cy="189.579361" gradientTransform="matrix(.00000012 .0537161 -.0966889 .00000007 35.839819 -5.175142)" gradientUnits="userSpaceOnUse" r="21.166656" xlink:href="#b"/><linearGradient id="g" gradientUnits="userSpaceOnUse" x1="7.27674417081" x2="7.27674417081" y1="19.27333515" y2="1.99106765838"><stop offset="0" stop-color="#e0e0e0"/><stop offset="1" stop-color="#eee"/></linearGradient><linearGradient id="h" gradientUnits="userSpaceOnUse" x1="254" x2="254" y1="233.5" y2="-168.666672"><stop offset="0" stop-color="#616161"/><stop offset="1" stop-color="#757575"/></linearGradient><path d="m4.09375 19.207031h13.644531v1.007813h-13.644531zm0 0" fill="url(#a)"/><path d="m17.738281 19.273438h1.816407v-.910157h-1.816407zm0 0" fill="url(#c)"/><path d="m4.09375 19.273438h-1.820312v.910156h1.820312zm0 0" fill="url(#d)"/><path d="m4.09375 19.273438h-1.820312v-.910157h1.820312zm0 0" fill="url(#e)"/><path d="m17.738281 19.273438h1.816407v.910156h-1.816407zm0 0" fill="url(#f)"/><path d="m3.183594 1.992188h15.464844c.5 0 .90625.40625.90625.910156v15.460937c0 .503907-.40625.910157-.90625.910157h-15.464844c-.503906 0-.910156-.40625-.910156-.910157v-15.460937c0-.503906.40625-.910156.910156-.910156zm0 0" fill="url(#g)"/><path d="m3.183594 2.054688c-.503906 0-.910156.40625-.910156.910156v.113281c0-.503906.40625-.910156.910156-.910156h15.464844c.503906 0 .90625.40625.90625.910156v-.113281c0-.503906-.402344-.910156-.90625-.910156zm0 0" fill="#f8f8f8" fill-opacity=".392157"/><path d="m3.183594 19.214844c-.503906 0-.910156-.402344-.910156-.90625v-.117188c0 .503906.40625.910156.910156.910156h15.464844c.503906 0 .90625-.40625.90625-.910156v.117188c0 .503906-.402344.90625-.90625.90625zm0 0" fill-opacity=".196078"/><g fill="none" stroke-linecap="round" transform="matrix(.0429729 0 0 .0429729 0 9.239163)"><path d="m74.083834-168.640791h359.874725c11.635253 0 21.088895 9.453643 21.088895 21.179796v359.783824c0 11.726153-9.453642 21.179796-21.088895 21.179796h-359.874725c-11.726152 0-21.179795-9.453643-21.179795-21.179796v-359.783824c0-11.726153 9.453643-21.179796 21.179795-21.179796zm0 0" stroke="#212121" stroke-width="3"/><path d="m158.712116 127.694547 74.083835-190.52726" stroke="url(#h)" stroke-linejoin="round" stroke-width="31"/><path d="m275.155542 127.694547 74.083835-190.52726" stroke="url(#h)" stroke-linejoin="round" stroke-width="31"/></g><path d="m9.980469 5.863281c-.269531.011719-.503907.183594-.597657.433594l-3.179687 8.1875c-.054687.132813-.066406.28125-.03125.417969.007813-.027344.019531-.058594.03125-.085938l3.179687-8.1875c.09375-.25.328126-.417968.597657-.429687.3125-.015625.59375.191406.671875.496093.054687-.203124.007812-.421874-.125-.585937-.132813-.164063-.335938-.253906-.546875-.246094zm5 0c-.265625.011719-.5.183594-.59375.433594l-3.183594 8.1875c-.050781.132813-.0625.277344-.027344.414063.007813-.027344.019531-.054688.027344-.082032l3.183594-8.1875c.09375-.25.328125-.417968.59375-.429687.316406-.015625.597656.191406.675781.496093.050781-.203124.003906-.421874-.128906-.585937-.132813-.164063-.335938-.253906-.546875-.246094zm0 0" fill="#fff" fill-opacity=".392157"/><path d="m10.648438 6.734375c-.007813.019531-.015626.039063-.023438.058594l-3.183594 8.183593c-.097656.269532-.359375.445313-.644531.433594-.285156-.007812-.535156-.199218-.617187-.472656-.101563.34375.085937.707031.425781.820312.34375.117188.710937-.058593.835937-.398437l3.183594-8.183594c.058594-.140625.066406-.296875.023438-.441406zm0 0" fill-opacity=".235294"/><path d="m15.648438 6.734375c-.003907.019531-.011719.039063-.019532.058594l-3.183594 8.183593c-.101562.269532-.359374.441407-.644531.433594-.285156-.011718-.535156-.199218-.617187-.476562-.101563.34375.085937.707031.425781.820312.339844.117188.707031-.058594.835937-.394531l3.183594-8.183594c.058594-.140625.0625-.296875.019532-.441406zm0 0" fill-opacity=".235294"/><path d="m232.250548-78.558484c-6.272128.272701-11.726152 4.272319-13.907762 10.089945l-73.992934 190.527261c-2.18161 5.181323-1.363507 11.08985 2.181609 15.453069 3.454216 4.45412 8.999141 6.54483 14.544066 5.726726 5.544925-.909004 10.180846-4.726821 12.089755-9.908145l74.083834-190.52726c1.999809-4.908622 1.363506-10.453547-1.636207-14.816767-3.090614-4.272319-8.090137-6.72663-13.362361-6.544829zm0 0" fill="none" stroke="#212121" stroke-linecap="round" stroke-linejoin="round" stroke-width="3" transform="matrix(.0429729 0 0 .0429729 0 9.239163)"/><path d="m348.603074-78.558484c-6.181228.272701-11.635253 4.272319-13.816863 10.089945l-74.083834 190.527261c-2.09071 5.181323-1.181705 11.08985 2.27251 15.453069 3.454216 4.36322 8.999141 6.54483 14.544066 5.635826 5.544925-.818104 10.180846-4.635921 12.089754-9.817245l74.083835-190.52726c1.999809-4.908622 1.363506-10.453547-1.727108-14.816767-2.999714-4.272319-8.090136-6.72663-13.36236-6.544829zm0 0" fill="none" stroke="#212121" stroke-linecap="round" stroke-linejoin="round" stroke-width="3" transform="matrix(.0429729 0 0 .0429729 0 9.239163)"/></svg>

<?xml version="1.0" encoding="UTF-8"?>
<svg xmlns="http://www.w3.org/2000/svg" xmlns:xlink="http://www.w3.org/1999/xlink" width="22px" height="22px" viewBox="0 0 22 22" version="1.1">
<defs>
<linearGradient id="linear0" gradientUnits="userSpaceOnUse" x1="254" y1="233.5" x2="254" y2="254.666672" gradientTransform="matrix(0.0429729,0,0,0.0429729,-0.00000262285,9.239165)">
<stop offset="0" style="stop-color:rgb(0%,0%,0%);stop-opacity:0.27451;"/>
<stop offset="1" style="stop-color:rgb(0%,0%,0%);stop-opacity:0;"/>
</linearGradient>
<radialGradient id="radial0" gradientUnits="userSpaceOnUse" cx="450.908936" cy="189.579361" fx="450.908936" fy="189.579361" r="21.166656" gradientTransform="matrix(0.000000119742,-0.0537161,-0.0966889,-0.0000000698078,35.839821,43.721791)">
<stop offset="0" style="stop-color:rgb(0%,0%,0%);stop-opacity:0.313726;"/>
<stop offset="0.222222" style="stop-color:rgb(0%,0%,0%);stop-opacity:0.27451;"/>
<stop offset="1" style="stop-color:rgb(0%,0%,0%);stop-opacity:0;"/>
</radialGradient>
<radialGradient id="radial1" gradientUnits="userSpaceOnUse" cx="450.908936" cy="189.579361" fx="450.908936" fy="189.579361" r="21.166656" gradientTransform="matrix(-0.000000119742,0.0537161,0.0966889,0.0000000698078,-14.009609,-5.175142)">
<stop offset="0" style="stop-color:rgb(0%,0%,0%);stop-opacity:0.313726;"/>
<stop offset="0.222222" style="stop-color:rgb(0%,0%,0%);stop-opacity:0.27451;"/>
<stop offset="1" style="stop-color:rgb(0%,0%,0%);stop-opacity:0;"/>
</radialGradient>
<radialGradient id="radial2" gradientUnits="userSpaceOnUse" cx="450.908936" cy="189.579361" fx="450.908936" fy="189.579361" r="21.166656" gradientTransform="matrix(-0.000000119742,-0.0537161,0.0966889,-0.0000000698078,-14.009609,43.721791)">
<stop offset="0" style="stop-color:rgb(0%,0%,0%);stop-opacity:0.313726;"/>
<stop offset="0.222222" style="stop-color:rgb(0%,0%,0%);stop-opacity:0.27451;"/>
<stop offset="1" style="stop-color:rgb(0%,0%,0%);stop-opacity:0;"/>
</radialGradient>
<radialGradient id="radial3" gradientUnits="userSpaceOnUse" cx="450.908936" cy="189.579361" fx="450.908936" fy="189.579361" r="21.166656" gradientTransform="matrix(0.000000119742,0.0537161,-0.0966889,0.0000000698078,35.839819,-5.175142)">
<stop offset="0" style="stop-color:rgb(0%,0%,0%);stop-opacity:0.313726;"/>
<stop offset="0.222222" style="stop-color:rgb(0%,0%,0%);stop-opacity:0.27451;"/>
<stop offset="1" style="stop-color:rgb(0%,0%,0%);stop-opacity:0;"/>
</radialGradient>
<linearGradient id="linear1" gradientUnits="userSpaceOnUse" x1="169.333328" y1="233.5" x2="169.333328" y2="-168.666656" gradientTransform="matrix(0.0429729,0,0,0.0429729,0,9.239163)">
<stop offset="0" style="stop-color:rgb(87.843138%,87.843138%,87.843138%);stop-opacity:1;"/>
<stop offset="1" style="stop-color:rgb(93.333334%,93.333334%,93.333334%);stop-opacity:1;"/>
</linearGradient>
<linearGradient id="linear2" gradientUnits="userSpaceOnUse" x1="254" y1="233.5" x2="254" y2="-168.666672" >
<stop offset="0" style="stop-color:rgb(38.039216%,38.039216%,38.039216%);stop-opacity:1;"/>
<stop offset="1" style="stop-color:rgb(45.882353%,45.882353%,45.882353%);stop-opacity:1;"/>
</linearGradient>
<linearGradient id="linear3" gradientUnits="userSpaceOnUse" x1="254" y1="233.5" x2="254" y2="-168.666672" >
<stop offset="0" style="stop-color:rgb(38.039216%,38.039216%,38.039216%);stop-opacity:1;"/>
<stop offset="1" style="stop-color:rgb(45.882353%,45.882353%,45.882353%);stop-opacity:1;"/>
</linearGradient>
</defs>
<g id="surface1">
<path style=" stroke:none;fill-rule:nonzero;fill:url(#linear0);" d="M 4.09375 19.207031 L 17.738281 19.207031 L 17.738281 20.214844 L 4.09375 20.214844 Z M 4.09375 19.207031 "/>
<path style=" stroke:none;fill-rule:nonzero;fill:url(#radial0);" d="M 17.738281 19.273438 L 19.554688 19.273438 L 19.554688 18.363281 L 17.738281 18.363281 Z M 17.738281 19.273438 "/>
<path style=" stroke:none;fill-rule:nonzero;fill:url(#radial1);" d="M 4.09375 19.273438 L 2.273438 19.273438 L 2.273438 20.183594 L 4.09375 20.183594 Z M 4.09375 19.273438 "/>
<path style=" stroke:none;fill-rule:nonzero;fill:url(#radial2);" d="M 4.09375 19.273438 L 2.273438 19.273438 L 2.273438 18.363281 L 4.09375 18.363281 Z M 4.09375 19.273438 "/>
<path style=" stroke:none;fill-rule:nonzero;fill:url(#radial3);" d="M 17.738281 19.273438 L 19.554688 19.273438 L 19.554688 20.183594 L 17.738281 20.183594 Z M 17.738281 19.273438 "/>
<path style=" stroke:none;fill-rule:nonzero;fill:url(#linear1);" d="M 3.183594 1.992188 L 18.648438 1.992188 C 19.148438 1.992188 19.554688 2.398438 19.554688 2.902344 L 19.554688 18.363281 C 19.554688 18.867188 19.148438 19.273438 18.648438 19.273438 L 3.183594 19.273438 C 2.679688 19.273438 2.273438 18.867188 2.273438 18.363281 L 2.273438 2.902344 C 2.273438 2.398438 2.679688 1.992188 3.183594 1.992188 Z M 3.183594 1.992188 "/>
<path style=" stroke:none;fill-rule:nonzero;fill:rgb(97.254902%,97.254902%,97.254902%);fill-opacity:0.392157;" d="M 3.183594 2.054688 C 2.679688 2.054688 2.273438 2.460938 2.273438 2.964844 L 2.273438 3.078125 C 2.273438 2.574219 2.679688 2.167969 3.183594 2.167969 L 18.648438 2.167969 C 19.152344 2.167969 19.554688 2.574219 19.554688 3.078125 L 19.554688 2.964844 C 19.554688 2.460938 19.152344 2.054688 18.648438 2.054688 Z M 3.183594 2.054688 "/>
<path style=" stroke:none;fill-rule:nonzero;fill:rgb(0%,0%,0%);fill-opacity:0.196078;" d="M 3.183594 19.214844 C 2.679688 19.214844 2.273438 18.8125 2.273438 18.308594 L 2.273438 18.191406 C 2.273438 18.695312 2.679688 19.101562 3.183594 19.101562 L 18.648438 19.101562 C 19.152344 19.101562 19.554688 18.695312 19.554688 18.191406 L 19.554688 18.308594 C 19.554688 18.8125 19.152344 19.214844 18.648438 19.214844 Z M 3.183594 19.214844 "/>
<path style="fill:none;stroke-width:3;stroke-linecap:round;stroke-linejoin:miter;stroke:rgb(12.941177%,12.941177%,12.941177%);stroke-opacity:1;stroke-miterlimit:4;" d="M 74.083834 -168.640791 L 433.958559 -168.640791 C 445.593812 -168.640791 455.047454 -159.187148 455.047454 -147.460995 L 455.047454 212.322829 C 455.047454 224.048982 445.593812 233.502625 433.958559 233.502625 L 74.083834 233.502625 C 62.357682 233.502625 52.904039 224.048982 52.904039 212.322829 L 52.904039 -147.460995 C 52.904039 -159.187148 62.357682 -168.640791 74.083834 -168.640791 Z M 74.083834 -168.640791 " transform="matrix(0.0429729,0,0,0.0429729,0,9.239163)"/>
<path style="fill:none;stroke-width:31;stroke-linecap:round;stroke-linejoin:round;stroke:url(#linear2);stroke-miterlimit:4;" d="M 158.712116 127.694547 L 232.795951 -62.832713 " transform="matrix(0.0429729,0,0,0.0429729,0,9.239163)"/>
<path style="fill:none;stroke-width:31;stroke-linecap:round;stroke-linejoin:round;stroke:url(#linear3);stroke-miterlimit:4;" d="M 275.155542 127.694547 L 349.239377 -62.832713 " transform="matrix(0.0429729,0,0,0.0429729,0,9.239163)"/>
<path style=" stroke:none;fill-rule:nonzero;fill:rgb(100%,100%,100%);fill-opacity:0.392157;" d="M 9.980469 5.863281 C 9.710938 5.875 9.476562 6.046875 9.382812 6.296875 L 6.203125 14.484375 C 6.148438 14.617188 6.136719 14.765625 6.171875 14.902344 C 6.179688 14.875 6.191406 14.84375 6.203125 14.816406 L 9.382812 6.628906 C 9.476562 6.378906 9.710938 6.210938 9.980469 6.199219 C 10.292969 6.183594 10.574219 6.390625 10.652344 6.695312 C 10.707031 6.492188 10.660156 6.273438 10.527344 6.109375 C 10.394531 5.945312 10.191406 5.855469 9.980469 5.863281 Z M 14.980469 5.863281 C 14.714844 5.875 14.480469 6.046875 14.386719 6.296875 L 11.203125 14.484375 C 11.152344 14.617188 11.140625 14.761719 11.175781 14.898438 C 11.183594 14.871094 11.195312 14.84375 11.203125 14.816406 L 14.386719 6.628906 C 14.480469 6.378906 14.714844 6.210938 14.980469 6.199219 C 15.296875 6.183594 15.578125 6.390625 15.65625 6.695312 C 15.707031 6.492188 15.660156 6.273438 15.527344 6.109375 C 15.394531 5.945312 15.191406 5.855469 14.980469 5.863281 Z M 14.980469 5.863281 "/>
<path style=" stroke:none;fill-rule:nonzero;fill:rgb(0%,0%,0%);fill-opacity:0.235294;" d="M 10.648438 6.734375 C 10.640625 6.753906 10.632812 6.773438 10.625 6.792969 L 7.441406 14.976562 C 7.34375 15.246094 7.082031 15.421875 6.796875 15.410156 C 6.511719 15.402344 6.261719 15.210938 6.179688 14.9375 C 6.078125 15.28125 6.265625 15.644531 6.605469 15.757812 C 6.949219 15.875 7.316406 15.699219 7.441406 15.359375 L 10.625 7.175781 C 10.683594 7.035156 10.691406 6.878906 10.648438 6.734375 Z M 10.648438 6.734375 "/>
<path style=" stroke:none;fill-rule:nonzero;fill:rgb(0%,0%,0%);fill-opacity:0.235294;" d="M 15.648438 6.734375 C 15.644531 6.753906 15.636719 6.773438 15.628906 6.792969 L 12.445312 14.976562 C 12.34375 15.246094 12.085938 15.417969 11.800781 15.410156 C 11.515625 15.398438 11.265625 15.210938 11.183594 14.933594 C 11.082031 15.277344 11.269531 15.640625 11.609375 15.753906 C 11.949219 15.871094 12.316406 15.695312 12.445312 15.359375 L 15.628906 7.175781 C 15.6875 7.035156 15.691406 6.878906 15.648438 6.734375 Z M 15.648438 6.734375 "/>
<path style="fill:none;stroke-width:3;stroke-linecap:round;stroke-linejoin:round;stroke:rgb(12.941177%,12.941177%,12.941177%);stroke-opacity:1;stroke-miterlimit:4;" d="M 232.250548 -78.558484 C 225.97842 -78.285783 220.524396 -74.286165 218.342786 -68.468539 L 144.349852 122.058722 C 142.168242 127.240045 142.986345 133.148572 146.531461 137.511791 C 149.985677 141.965911 155.530602 144.056621 161.075527 143.238517 C 166.620452 142.329513 171.256373 138.511696 173.165282 133.330372 L 247.249116 -57.196888 C 249.248925 -62.10551 248.612622 -67.650435 245.612909 -72.013655 C 242.522295 -76.285974 237.522772 -78.740285 232.250548 -78.558484 Z M 232.250548 -78.558484 " transform="matrix(0.0429729,0,0,0.0429729,0,9.239163)"/>
<path style="fill:none;stroke-width:3;stroke-linecap:round;stroke-linejoin:round;stroke:rgb(12.941177%,12.941177%,12.941177%);stroke-opacity:1;stroke-miterlimit:4;" d="M 348.603074 -78.558484 C 342.421846 -78.285783 336.967821 -74.286165 334.786211 -68.468539 L 260.702377 122.058722 C 258.611667 127.240045 259.520672 133.148572 262.974887 137.511791 C 266.429103 141.875011 271.974028 144.056621 277.518953 143.147617 C 283.063878 142.329513 287.699799 138.511696 289.608707 133.330372 L 363.692542 -57.196888 C 365.692351 -62.10551 365.056048 -67.650435 361.965434 -72.013655 C 358.96572 -76.285974 353.875298 -78.740285 348.603074 -78.558484 Z M 348.603074 -78.558484 " transform="matrix(0.0429729,0,0,0.0429729,0,9.239163)"/>
</g>
</svg>
